X:425
%%etbk:tnset id:127,pos:2,rep:3x,ant:
%%etbk:wsite http://www.thesession.org/tunes/display/869
%%etbk:pldat 2016-09-03T11:06,2016-08-09T17:47,2016-06-14T17:17,2016-03-30T18:16,2015-04-21T15:53,2015-03-04T16:50,2015-02-17T17:59,2014-09-26T18:12,2014-04-08T17:01,2014-03-14T18:25,2014-02-26T18:26,2013-10-21T18:26,2013-08-28T16:56,2013-05-15T17:21
T: Kitty's Wedding
Z: Piano Box Version by Martin Fleischmann
H: Created 2013-02-19 /  Last Modified 2013-02-19
M: 4/4
L: 1/8
R: hornpipe
K: Dmaj
!5!fe|: "D"!3!d2!2!B!3!d !1!A2!2!F!4!A | !5!B!4!A!2!F!4!A !1!D2 {G}!2!E!1!D | !2!B,!4!D!1!A,!2!B, !1!D!2!F!5!BF | !4!A!2!F!1!D!2!F "A"!1!E2!5!fe |
"D"!3!d2!2!B!3!d !1!A2!2!F!4!A | !5!B!4!A!2!F!4!A !1!D2 {G}!2!E!1!D | !2!B,!4!D!1!A,!2!B, !1!D!2!F!5!BF  | "A"!4!AF!1!E!2!F "D"!1!D4:|
|: !3!fg | "D"!5!afed !5!b!4!a!3!fe | !1!d2fd {g}e!1!d!2!B!4!d | !1!D!2!F!3!A!5!d !2!F!3!A!5!d!2!e | !3!fedf "A"!2!e2fg |
"D"!5!afed !5!b!4!a!3!fe | !1!d2fd {g}e!1!d!2!B!4!d | !1!D!2!F!3!A!5!d !2!F!3!A!5!d!3!f | "A"!2!e!1!ABc "D"!4!d4:|


